X: 15921
T: Grande Nuit In Port Du Peche
R: reel
M: 4/4
K: Eminor
|:E2BE GBB2|BcBE GBB2|BcBE BAFG|ABB2AGFG:|
E2GE GAA2|EBAF GFED|E2GE GAA2|EBAFG2 (3FED|
E2GE GAA2|EBAF GBFG|E2GE GAA2|BAGFE2 dc|
|:BEEDE2 dc|ABB2 ABB2|BdcBA2A2|1 BAGFE2 dc:|2 [M:2/4] BAGF||
[M:4/4] E2GE GAA2|EBAF GFED|E2GE GAA2|EBAFG2 (3FED|
E2GE GAA2|EBAF GBFG|E2GE GAA2|BAGFE4||
|:e2 ge ga a2|ebaf gfed|e2 ge ga a2|ebaf g2 (3fed|
e2 ge ga a2|ebaf gbfg|e2 ge ga a2|bagf e4||

